products/org.csstudio.iter.css.product/SymbolLibrary_full_hd/SVG/IandC/Host/PSC Safety Slow Controller 1.svg

<?xml version="1.0" encoding="UTF-8" standalone="no"?>
<!--
/*******************************************************************************
* Copyright (c) 2010-2019 ITER Organization. 
* All rights reserved. This program and the accompanying materials
* are made available under the terms of the Eclipse Public License v1.0
* which accompanies this distribution, and is available at
* http://www.eclipse.org/legal/epl-v10.html
******************************************************************************/
-->
<svg
   xmlns:dc="http://purl.org/dc/elements/1.1/"
   xmlns:cc="http://creativecommons.org/ns#"
   xmlns:rdf="http://www.w3.org/1999/02/22-rdf-syntax-ns#"
   xmlns:svg="http://www.w3.org/2000/svg"
   xmlns="http://www.w3.org/2000/svg"
   id="svg2"
   version="1.1"
   viewBox="0 0 51 51"
   height="68"
   width="68">
  <metadata
     id="metadata19">
    <rdf:RDF>
      <cc:Work
         rdf:about="">
        <dc:format>image/svg+xml</dc:format>
        <dc:type
           rdf:resource="http://purl.org/dc/dcmitype/StillImage" />
        <dc:title />
      </cc:Work>
    </rdf:RDF>
  </metadata>
  <defs
     id="defs17" />
  <g
     style="stroke:#000000;stroke-width:1.94802654;stroke-miterlimit:4;stroke-opacity:1;stroke-dasharray:none"
     transform="matrix(0.6940357,0,0,0.6940357,7.9552656,7.9511984)"
     id="surface1">
    <path
       id="path5"
       transform="matrix(1.874996,0,0,1.874996,1.349995,-1.387718)"
       d="m 8.36044e-4,1.460953 25.510476956,0 0,25.510477 -25.510476956,0 z"
       style="fill:#a6a6a6;fill-opacity:1;fill-rule:evenodd;stroke:#ff0000;stroke-width:1.03894972999999990;stroke-linecap:round;stroke-linejoin:round;stroke-miterlimit:4;stroke-opacity:1;stroke-dasharray:none" />
    <path
       id="path7"
       transform="matrix(1.874996,0,0,1.874996,1.349995,-1.39128)"
       d="M 25.50923,14.219133 12.7592,26.969164 8.36044e-4,14.219133 12.7592,1.46077 z"
       style="fill:none;stroke:#ff0000;stroke-width:1.03894972999999990;stroke-linecap:round;stroke-linejoin:round;stroke-miterlimit:4;stroke-opacity:1;stroke-dasharray:none" />
    <path
       id="path9"
       transform="matrix(1.874996,0,0,1.874996,1.349995,-25.308536)"
       d="m 8.36044e-4,26.970867 25.508393956,0"
       style="fill:none;stroke:#ff0000;stroke-width:1.03894972999999990;stroke-linecap:round;stroke-linejoin:round;stroke-miterlimit:4;stroke-opacity:1;stroke-dasharray:none" />
    <path
       id="path11"
       d="m 1.371094,1.386719 0.03125,0 0,0.03125 -0.03125,0 z"
       style="fill:#ffffff;fill-opacity:1;fill-rule:evenodd;stroke:#ff0000;stroke-width:1.94802654000000010;stroke-miterlimit:4;stroke-opacity:1;stroke-dasharray:none" />
    <path
       id="path13"
       d="m 49.175781,49.191406 0.03125,0 0,0.03125 -0.03125,0 z"
       style="fill:#ffffff;fill-opacity:1;fill-rule:evenodd;stroke:#ff0000;stroke-width:1.94802654000000010;stroke-miterlimit:4;stroke-opacity:1;stroke-dasharray:none" />
  </g>
  <path
     id="path10-3"
     d="m 0.75,25.5 8,0"
     style="fill:none;stroke:#ff0000;stroke-width:1.50000000000000000;stroke-linecap:butt;stroke-linejoin:round;stroke-miterlimit:3;stroke-opacity:1;stroke-dasharray:none" />
  <path
     id="path10-3-1"
     d="m 42.25,25.5 8,0"
     style="fill:none;stroke:#ff0000;stroke-width:1.50000000000000000;stroke-linecap:butt;stroke-linejoin:round;stroke-miterlimit:3;stroke-opacity:1;stroke-dasharray:none" />
</svg>

<?xml version="1.0" encoding="UTF-8"?>
<!--
/*******************************************************************************
* Copyright (c) 2010-2019 ITER Organization. 
* All rights reserved. This program and the accompanying materials
* are made available under the terms of the Eclipse Public License v1.0
* which accompanies this distribution, and is available at
* http://www.eclipse.org/legal/epl-v10.html
******************************************************************************/
-->
<svg xmlns="http://www.w3.org/2000/svg" xmlns:xlink="http://www.w3.org/1999/xlink" width="31pt" height="31pt" viewBox="0 0 31 31" version="1.1">
<g id="surface1">
<path style="fill-rule:evenodd;fill:rgb(65.098039%,65.098039%,65.098039%);fill-opacity:1;stroke-width:1.03895;stroke-linecap:round;stroke-linejoin:round;stroke:rgb(100%,0%,0%);stroke-opacity:1;stroke-miterlimit:4;" d="M 0.00149303 1.459797 L 25.513273 1.459797 L 25.513273 26.971577 L 0.00149303 26.971577 Z M 0.00149303 1.459797 " transform="matrix(0.790995,0,0,0.790995,5.405069,4.247652)"/>
<path style="fill:none;stroke-width:1.03895;stroke-linecap:round;stroke-linejoin:round;stroke:rgb(100%,0%,0%);stroke-opacity:1;stroke-miterlimit:4;" d="M 25.508335 14.217587 L 12.757383 26.968538 L 0.00149303 14.217587 L 12.757383 1.461697 Z M 25.508335 14.217587 " transform="matrix(0.790995,0,0,0.790995,5.405069,4.246149)"/>
<path style="fill:none;stroke-width:1.03895;stroke-linecap:round;stroke-linejoin:round;stroke:rgb(100%,0%,0%);stroke-opacity:1;stroke-miterlimit:4;" d="M 0.00149303 26.968545 L 25.508335 26.968545 " transform="matrix(0.790995,0,0,0.790995,5.405069,-5.8437)"/>
<path style="fill-rule:evenodd;fill:rgb(100%,100%,100%);fill-opacity:1;stroke-width:1.948027;stroke-linecap:butt;stroke-linejoin:miter;stroke:rgb(100%,0%,0%);stroke-opacity:1;stroke-miterlimit:4;" d="M 1.371313 1.386433 L 1.399092 1.386433 L 1.399092 1.414212 L 1.371313 1.414212 Z M 1.371313 1.386433 " transform="matrix(0.421865,0,0,0.421865,4.835554,4.833081)"/>
<path style="fill-rule:evenodd;fill:rgb(100%,100%,100%);fill-opacity:1;stroke-width:1.948027;stroke-linecap:butt;stroke-linejoin:miter;stroke:rgb(100%,0%,0%);stroke-opacity:1;stroke-miterlimit:4;" d="M 49.178021 49.19314 L 49.205799 49.19314 L 49.205799 49.220919 L 49.178021 49.220919 Z M 49.178021 49.19314 " transform="matrix(0.421865,0,0,0.421865,4.835554,4.833081)"/>
<path style="fill:none;stroke-width:1.5;stroke-linecap:butt;stroke-linejoin:round;stroke:rgb(100%,0%,0%);stroke-opacity:1;stroke-miterlimit:3;" d="M 0.75189 25.5 L 8.752772 25.5 " transform="matrix(0.607843,0,0,0.607843,0,0)"/>
<path style="fill:none;stroke-width:1.5;stroke-linecap:butt;stroke-linejoin:round;stroke:rgb(100%,0%,0%);stroke-opacity:1;stroke-miterlimit:3;" d="M 42.247228 25.5 L 50.24811 25.5 " transform="matrix(0.607843,0,0,0.607843,0,0)"/>
</g>
</svg>
